X: 1
T:Stourton Wake
M:4/4
C:
S:Radford
N:
A:Adderbury
O:English
R:Reel
%:
%:
%P:A.(AB)$^5$
P:A.(AB)5
K:Em
I:speed 350
%:
%:
P:A
|: B2  B^c  d2  B2 | AGFE   D2  D2  |  E2 B2  BAGF    | E4    E4    :|\
P:B
   B2  B^c  d2  B2 | ed^cB  A2  A2  |  B2 B^c d2  B2  | e4    B4    |\
   B2  B^c  d2  B2 | AGFE   D2  D2  |  E2 B2  BAGF    | E4    E4    ||
